src/lib/images/icons/tech.svg

<svg width="33" height="32" viewBox="0 0 33 32" fill="none" xmlns="http://www.w3.org/2000/svg">
<path d="M30.598 3.56952L28.4435 1.41508C26.5568 -0.471692 23.4883 -0.471692 21.6015 1.41508L16.692 6.32459C14.8053 8.21136 14.8053 11.2798 16.692 13.1666L16.8161 13.2906L13.2972 16.8095L13.1666 16.679C11.2798 14.7922 8.21136 14.7922 6.32459 16.679L1.41508 21.5885C-0.471692 23.4753 -0.471692 26.5437 1.41508 28.4305L3.56952 30.5849C5.45629 32.4717 8.52474 32.4717 10.4115 30.5849L15.321 25.6754C17.2078 23.7886 17.2078 20.7202 15.321 18.8334L15.197 18.7094L18.7159 15.1905L18.8465 15.321C20.7332 17.2078 23.8017 17.2078 25.6885 15.321L30.598 10.4115C32.4847 8.53127 32.4847 5.45629 30.598 3.56952ZM13.4277 20.7267C14.2699 21.5689 14.2699 22.9399 13.4277 23.7886L8.51821 28.6982C7.67602 29.5403 6.30501 29.5403 5.45629 28.6982L3.30185 26.5437C2.45966 25.7015 2.45966 24.3305 3.30185 23.4818L8.21136 18.5723C9.05355 17.7301 10.4246 17.7301 11.2733 18.5723L11.4039 18.7028L9.27553 20.8312C8.73365 21.373 8.73365 22.1891 9.27553 22.7375C9.54973 23.0117 9.88922 23.1488 10.2287 23.1488C10.5682 23.1488 10.9077 23.0117 11.1819 22.7375L13.3102 20.6092L13.4277 20.7267ZM28.7047 8.52474L23.7952 13.4343C22.953 14.2764 21.582 14.2764 20.7332 13.4343L20.6027 13.3037L22.731 11.1754C23.2729 10.6335 23.2729 9.8174 22.731 9.269C22.1891 8.7206 21.373 8.72712 20.8246 9.269L18.6963 11.3973L18.5723 11.2733C17.7301 10.4311 17.7301 9.06008 18.5723 8.21136L23.4818 3.30185C24.324 2.45966 25.695 2.45966 26.5437 3.30185L28.6982 5.45629C29.5534 6.30501 29.5534 7.67602 28.7047 8.52474Z" fill="white"/>
</svg>

<svg fill="none" height="32" width="33" xmlns="http://www.w3.org/2000/svg"><path d="M30.598 3.57l-2.154-2.155a4.843 4.843 0 0 0-6.842 0l-4.91 4.91a4.843 4.843 0 0 0 0 6.842l.124.124-3.519 3.518-.13-.13a4.843 4.843 0 0 0-6.842 0l-4.91 4.91a4.843 4.843 0 0 0 0 6.841l2.155 2.155a4.843 4.843 0 0 0 6.841 0l4.91-4.91a4.843 4.843 0 0 0 0-6.842l-.124-.124 3.519-3.518.13.13a4.843 4.843 0 0 0 6.843 0l4.909-4.91c1.887-1.88 1.887-4.955 0-6.841zm-17.17 17.157a2.171 2.171 0 0 1 0 3.062l-4.91 4.91a2.171 2.171 0 0 1-3.062 0l-2.154-2.155a2.171 2.171 0 0 1 0-3.062l4.91-4.91a2.171 2.171 0 0 1 3.061 0l.13.13-2.127 2.13c-.542.541-.542 1.357 0 1.905.274.275.613.412.953.412s.679-.137.953-.412l2.128-2.128zM28.705 8.525l-4.91 4.91a2.171 2.171 0 0 1-3.062 0l-.13-.131 2.128-2.129c.542-.542.542-1.358 0-1.906s-1.358-.542-1.906 0l-2.129 2.128-.124-.124a2.171 2.171 0 0 1 0-3.062l4.91-4.91a2.171 2.171 0 0 1 3.062 0l2.154 2.155c.855.849.855 2.22.007 3.069z" fill="#fff"/></svg>
